src/assets/curso/temas/tema_2/img_6.svg

<svg height="75.948" viewBox="0 0 75.948 75.948" width="75.948" xmlns="http://www.w3.org/2000/svg"><path d="m0 0h75.948v75.948h-75.948z" fill="none"/><g transform="translate(4.666 3.5)"><path d="m17 36h32.5v17.333h-32.5z" fill="#ffde55" transform="translate(.083 2.834)"/><path d="m49.5 35.982v2.1h-32.5v-2.1a6.5 6.5 0 0 1 4.084-6.034l6.749-2.7v-16.248h10.834v16.25l6.749 2.7a6.5 6.5 0 0 1 4.084 6.032z" fill="#44ffe8" transform="translate(.083 .75)"/><path d="m38.083 11.667h-13a1.083 1.083 0 0 1 -1.083-1.084v-6.5a1.083 1.083 0 0 1 1.083-1.083h15.167a1.083 1.083 0 0 1 1.083 1.083v6.5a1.083 1.083 0 0 1 -1.083 1.083z" fill="#acabb1" transform="translate(.667 .083)"/><circle cx="33.334" cy="47.5" fill="#ff5023" r="4"/><path d="m49.5 52v5.417a4.333 4.333 0 0 1 -4.333 4.333h-23.834a4.333 4.333 0 0 1 -4.333-4.333v-5.417z" fill="#44ffe8" transform="translate(.083 4.167)"/><path d="m27 11h10.833v2.167h-10.833z" fill="#00eed1" transform="translate(.917 .75)"/><path d="m45.9 29.692-6.067-2.426v-14.433h1.083a2.167 2.167 0 0 0 2.167-2.167v-6.5a2.167 2.167 0 0 0 -2.166-2.166h-15.167a2.167 2.167 0 0 0 -2.167 2.167v6.5a2.167 2.167 0 0 0 2.167 2.167h1.083v14.433l-6.067 2.426a7.549 7.549 0 0 0 -4.766 7.041v24.85a5.423 5.423 0 0 0 5.417 5.416h23.833a5.423 5.423 0 0 0 5.417-5.417v-24.849a7.55 7.55 0 0 0 -4.767-7.042zm-20.15-25.525h15.167v6.5h-15.167zm-4.178 27.538 6.748-2.7a1.083 1.083 0 0 0 .68-1.005v-15.167h8.667v15.167a1.083 1.083 0 0 0 .681 1.006l6.752 2.694a5.393 5.393 0 0 1 3.4 5.03v1.02h-30.333v-1.016a5.391 5.391 0 0 1 3.4-5.029zm26.928 8.212v15.167h-30.333v-15.167zm-3.25 24.917h-23.833a3.25 3.25 0 0 1 -3.25-3.25v-4.334h30.333v4.333a3.25 3.25 0 0 1 -3.25 3.251z"/><path d="m31 6h2.167v2.167h-2.167z" transform="translate(1.25 .333)"/><path d="m35 6h2.167v2.167h-2.167z" transform="translate(1.583 .333)"/><path d="m27 6h2.167v2.167h-2.167z" transform="translate(.917 .333)"/><path d="m32.417 49.833a5.417 5.417 0 1 0 -5.417-5.416 5.417 5.417 0 0 0 5.417 5.417zm0-8.667a3.25 3.25 0 1 1 -3.25 3.25 3.25 3.25 0 0 1 3.25-3.249z" transform="translate(.917 3.084)"/></g></svg>

<svg xmlns="http://www.w3.org/2000/svg" width="75.948" height="75.948" viewBox="0 0 75.948 75.948">
  <g id="Grupo_1127717" data-name="Grupo 1127717" transform="translate(-826.051 -2537)">
    <rect id="Rectángulo_409889" data-name="Rectángulo 409889" width="75.948" height="75.948" transform="translate(826.051 2537)" fill="none"/>
    <g id="Whiskey-Bottle" transform="translate(830.717 2540.5)">
      <path id="Trazado_919291" data-name="Trazado 919291" d="M17,36H49.5V53.333H17Z" transform="translate(0.083 2.834)" fill="#ffde55"/>
      <path id="Trazado_919292" data-name="Trazado 919292" d="M49.5,35.982v2.1H17v-2.1a6.5,6.5,0,0,1,4.084-6.034l6.749-2.7V11H38.667V27.25l6.749,2.7A6.5,6.5,0,0,1,49.5,35.982Z" transform="translate(0.083 0.75)" fill="#44ffe8"/>
      <path id="Trazado_919293" data-name="Trazado 919293" d="M38.083,11.667h-13A1.083,1.083,0,0,1,24,10.583v-6.5A1.083,1.083,0,0,1,25.083,3H40.25a1.083,1.083,0,0,1,1.083,1.083v6.5a1.083,1.083,0,0,1-1.083,1.083Z" transform="translate(0.667 0.083)" fill="#acabb1"/>
      <circle id="Elipse_12354" data-name="Elipse 12354" cx="4" cy="4" r="4" transform="translate(29.334 43.5)" fill="#ff5023"/>
      <path id="Trazado_919294" data-name="Trazado 919294" d="M49.5,52v5.417a4.333,4.333,0,0,1-4.333,4.333H21.333A4.333,4.333,0,0,1,17,57.417V52Z" transform="translate(0.083 4.167)" fill="#44ffe8"/>
      <path id="Trazado_919295" data-name="Trazado 919295" d="M27,11H37.833v2.167H27Z" transform="translate(0.917 0.75)" fill="#00eed1"/>
      <path id="Trazado_919296" data-name="Trazado 919296" d="M45.9,29.692l-6.067-2.426V12.833h1.083a2.167,2.167,0,0,0,2.167-2.167v-6.5A2.167,2.167,0,0,0,40.917,2H25.75a2.167,2.167,0,0,0-2.167,2.167v6.5a2.167,2.167,0,0,0,2.167,2.167h1.083V27.267l-6.067,2.426A7.549,7.549,0,0,0,16,36.734v24.85A5.423,5.423,0,0,0,21.417,67H45.25a5.423,5.423,0,0,0,5.417-5.417V36.734A7.55,7.55,0,0,0,45.9,29.692ZM25.75,4.167H40.917v6.5H25.75ZM21.572,31.705l6.748-2.7A1.083,1.083,0,0,0,29,28V12.833h8.667V28a1.083,1.083,0,0,0,.681,1.006L45.1,31.7a5.393,5.393,0,0,1,3.4,5.03V37.75H18.167V36.734a5.391,5.391,0,0,1,3.4-5.029ZM48.5,39.917V55.084H18.167V39.917ZM45.25,64.834H21.417a3.25,3.25,0,0,1-3.25-3.25V57.25H48.5v4.333A3.25,3.25,0,0,1,45.25,64.834Z" transform="translate(0 0)"/>
      <path id="Trazado_919297" data-name="Trazado 919297" d="M31,6h2.167V8.167H31Z" transform="translate(1.25 0.333)"/>
      <path id="Trazado_919298" data-name="Trazado 919298" d="M35,6h2.167V8.167H35Z" transform="translate(1.583 0.333)"/>
      <path id="Trazado_919299" data-name="Trazado 919299" d="M27,6h2.167V8.167H27Z" transform="translate(0.917 0.333)"/>
      <path id="Trazado_919300" data-name="Trazado 919300" d="M32.417,49.833A5.417,5.417,0,1,0,27,44.417a5.417,5.417,0,0,0,5.417,5.417Zm0-8.667a3.25,3.25,0,1,1-3.25,3.25A3.25,3.25,0,0,1,32.417,41.167Z" transform="translate(0.917 3.084)"/>
    </g>
  </g>
</svg>
